X:353
T:
R:polska
S:Efter fru Brodén i Klintehamn.
O:Gotland, Klintehamn
M:3/4
L:1/16
K:D
ABAG A2d2 f2d2|dedc A2ce g2g2|f2gf e2e2 c2c2|e2fe d2A2 F2D2|
ABAG A2d2 f2d2|dedc A2ce g2g2|f2gf e2e2 c2c2|e2e2 d4 z4::defg a2a2 a2a2|
a3f g3f g3b|Lb3d d2d2 [d2f2][d2a2]|La3A A2A2 c2e2|defg a2a2 a2a2|a3f g3f g3b|
b3a a2f2 a2g2|e3f d4 z4:|

